X:1
T:Geronimo, 88.88.86
T:Geronimo, 88.88.86
T:Charles Villiers Stanford, 1904
T:Public Domain Courtesy of the Cyber Hymnal™
C:Charles Villiers Stanford, 1904
Z:Public Domain
Z:Courtesy of the Cyber Hymnal™
%%score ( 1 2 ) ( 3 4 )
L:1/8
Q:1/4=112
M:none
K:Eb
V:1 treble 
V:2 treble 
V:3 bass 
V:4 bass 
V:1
 [GB]2 [Ee]2 [Fd]2 [Ge]2 | [FB]2 [EA]2 [EG]2 [FB]2 | [FB]2 [Ee]2 [Fd]2 [Ge]2 | %3
 [FB]2 [FA]2 [EG]2 [FB]2- | [FB]4 [EB]2 [Ec]2 | [DB]2 [EA]2 [EG]2 [CF]2 | %6
 [CE]2 [=B,D]2 [B,D]2 [CE]2 | [DF]2 [EG]2 [Gc]2 [GB]2 | [^F=A]2 [GB]6 | [DF]2 [DG]2 [F=A]2 [FB]2 | %10
 [Ge]2 [Fd]2 [Fc]2 [Fd]2 | [Bf]2 [Be]2 [Ac]2 z G | [FB]2 [GB]4 |] %13
V:2
 x8 | x8 | x8 | x8 | x8 | x8 | x8 | x8 | x8 | x8 | x8 | x6 A2 | x6 |] %13
V:3
 [E,B,]2 [G,B,]2 [F,A,]2 [E,B,]2 | [D,B,]2 C2 (B,C) [B,,D]2 | D2 [G,B,]2 [F,A,]2 [E,B,]2 | %3
 [D,B,]2 [F,C]2 [C,C]2 [B,,D]2- | [B,,D]4 [E,G,]2 [A,,A,]2 | [B,,F,]2 [C,A,]2 [E,B,]2 [F,A,]2 | %6
 [C,G,]2 [G,,G,]2 [G,,G,]2 [C,G,]2 | [B,,B,]2 [E,B,]2 [C,C]2 [D,D]2 | [D,D]2 [G,D]6 | %9
 B,2 [G,B,]2 [F,C]2 [D,B,]2 | [C,B,]2 [F,B,]2 [F,=A,]2 B,2 | [A,C]2 [G,E]2 [A,E]2 (FE) | %12
 [B,D]2 [E,C]4 |] %13
V:4
 x8 | x2 (C,D,) E,2 x2 | B,A, x6 | x8 | x8 | x8 | x8 | x8 | x8 | x8 | x8 | x6 F,2 | x6 |] %13

